packages/react-icons/icons/notification-filled.svg

<svg width="24" height="24" viewBox="0 0 24 24" xmlns="http://www.w3.org/2000/svg">
<path fill-rule="evenodd" clip-rule="evenodd" d="M18.0012 10.75V15.75L19.2912 17.04C19.9212 17.67 19.4712 18.75 18.5812 18.75H5.41121C4.52121 18.75 4.08121 17.67 4.71121 17.04L6.00121 15.75V10.75C6.00121 7.67 7.63121 5.11 10.5012 4.43V3.75C10.5012 2.92 11.1712 2.25 12.0012 2.25C12.8312 2.25 13.5012 2.92 13.5012 3.75V4.43C16.3612 5.11 18.0012 7.68 18.0012 10.75ZM14.0012 19.75C14.0012 20.85 13.1012 21.75 12.0012 21.75C10.8912 21.75 10.0012 20.85 10.0012 19.75H14.0012Z" />
</svg>

<svg xmlns="http://www.w3.org/2000/svg" width="24" height="24"><path fill-rule="evenodd" d="M18.001 10.75v5l1.29 1.29c.63.63.18 1.71-.71 1.71H5.411c-.89 0-1.33-1.08-.7-1.71l1.29-1.29v-5c0-3.08 1.63-5.64 4.5-6.32v-.68c0-.83.67-1.5 1.5-1.5s1.5.67 1.5 1.5v.68c2.86.68 4.5 3.25 4.5 6.32Zm-4 9a2 2 0 1 1-4 0h4Z" clip-rule="evenodd"/></svg>
